X: 12031
T: Dumbarton's Drums beat Bonny
%R: air, strathspey
B: James Oswald "The Caledonian Pocket Companion" v.1 b.1 p.1 #1
Z: 2020 John Chambers <jc:trillian.mit.edu>
M: C
L: 1/8
K: G	% with Em endings
"_Slow"G>A |\
B3d B>dA>B | G2 (d>e) d2 (Tc>B) | (AGA)B (cB)(TA>G) | E2(e>f) e2(d>e) | (gfg)a baTg>e | dBde {de}g2G2 |
AB g(f/e/) dB (A>G) | E2(e>f) e2 :: (d>e) | g3a (g>a)(b>a) | g2b>c' b2(ag) | (ag)ab c'b(Ta>g) | e2(ab) a2(ge) |
(de)(ga) (b>g)(a>e) | gdeg TB2A>G | b>a ge (d<B) (TA>F) | E2(e>f) e2 :: G>A | B2 g4 TB>A | G2 {Bc}d4 (Tc>B) |
A2 a4 (TG>F) | E2(e>f) e2(G>E) | (DE)(GA) TB2(A>G) | g>a (b/g/a/b/) (d<B) (TA>G) | A(.g.f.e) d(c/B/) (c/B/)(A/G/) | E2e>f e2 :: G>A |
B2g>a g2TB>A | G2(g>a) g2(eg) | (agab) abag | (e>d) (e/d/e/)g/ a2(Tg>e) | gGga (b/a/g/b/) (a/g/e/a/) | (gf)(ed) TB2A>G |
b(a/b/) (a/g/f/e/) (d>B) (TA>G) | E2(e>f) e2 :: G>A | B2 (3(ged) (B>e) (d/B/A/B/) | Gg2(f/e/) {e}d3(c/B/) |{B}A3B (G>A)(F>G) | E2e>f e2d>e |
g2 (3(bag) F2 (3(agf) | eged B2(TA>G) | (ga/b/) (ef/g/) (d<B) (TA>G) | E2(e>f) e2 :: (d>e) | g2 (3(bag) G2 (3(bag) | d2(b>c') b2(Ta>g) |
a2(3(d'c'b) (3c'ba (3bag | (ede)g a2(Tg>e) | gGgb F2(3(agf) | Eged B2TA>G | (b>a) ge (d<B) (TA>G) | E2(e>f) e2 :|


